X: 11464
T: TO THE CHACE MY CHOICE SPIRITS AWAY
O: Old Hunting Song.
%R: air, waltz
B: W. Hamilton "Universal Tune-Book" Vol. 1 Glasgow 1844 p.146 #4
S: http://imslp.org/wiki/Hamilton's_Universal_Tune-Book_(Various)
Z: 2016 John Chambers <jc:trillian.mit.edu>
N: Added rest at end of 1st strain, to fix the rhythm and agree with the 2nd strain's ending.
M: 3/4
L: 1/8
K: G
%%slurgraces yes
%%graceslurs yes
% - - - - - - - - - - - - - - - - - - - - - - - - -
d2 |\
g2B2c2 | d2g2Bd | c2B2A2 | G4d2 |\
e2d2g2 | e2d2g2 | B2A2G2 | d4A2 |\
d2d2d2 | d2^c2A2 | f2f2f2 | f2e2f2 |
g3fe2 | a2g2f2 | e2A2^c2 | d4A2 |\
d2defe | d4A2 | f2fgag | f4f2 |\
g3fe2 | a2gfed | e2A2^c2 | d2z2 |]
d2 |\
g2B2c2 | d3e=f2 | e2g=fed | c4ee |\
d2f2g2 | d2f2g2 | edc2B2 | {B}A4d2 |\
g2B2c2 | d2g2Bd | c2B2A2 | G4dd |
e2d2g2 | e2d2g2 | d2cBAG | d4dB |\
G2GABA | G4A2 | B2Bcdc | B4dd |\
g3fe2 | {e}d2cBAG | A2g2f2 | g2z2 |]
% - - - - - - - - - - - - - - - - - - - - - - - - -

% (Continued from previous page)

%%sep 1 1 500
%%sep 1 1 500

